FINK
CUT[IN LAUTERBACH]
REG[Europa, Mitteleuropa, Deutschland]
KEY[F0183  16  A 6/8]
MEL[-5_  -5_.11_1_-7_1_  -5_.22_2__
    5_  3_.33_2_1_2_  1__.0__
    -5_  -5_.11_1_-7_1_  -5_.22_2__
    5_  3_.33_2_1_2_  1__.0__
    -5_  5_.55_5_4_3_  -5_.44_4__
    -5_  3_.33_3_2_1_  2__.0__
    -5_  -6_.-5-5_-5_3_2_  1__.0__
    -5_  5_.55_5_4_3_  -5_.44_4__
    -5_  3_.33_3_2_1_  2__.0__
    -5_  -6_.-5-5_-5_3_2_  1__.0__ //] >>
FCT[Scherz - Lied]
